X: 1601
T: Rast Sazsemâîsi
C: Benli Hasan Ağa
O: Turkey
F: http://compmusic.upf.edu/node/140
N: rast--sazsemaisi--aksaksemai----benli_hasan_aga
N: makam= rast
N: form= sazsemaisi
N: usul= aksaksemai = 10/8
M: 10/8
L: 1/16
K: C _1/4B ^f  
Q: 1/4=112
%%MIDI tuningsystem comma53
G4 ABG4AB AGFE D4  | E4 D2EF DEFG EFG4z2  | 
w:  1. HANE  |   | 
G4 ABG3cB2 c2de d2c2  | BcBA G2AB AGA2 B2G4z2  | 
w:   |   | 
DEFG ABG3cB2 c2d4z2  | efef g2a2 gfag =fede d2c2  | 
w:  TESLİM  |   | 
BcBc de=fg fede dcBA Bcd2  | B4 G2AB AGA2 B2G4z2  | 
w:   |   | 
DEFG ABG3cB2 c2d4z2  | efef g2a2 gfag =fede d2c2  | 
w:  TESLİM  |   | 
BcBc de=fg fede dcBA Bcd2  | B4 G2AB AGA2 B2G4z2  | 
w:   |   | 
d4 c2d4cd cde=f e2d2  | c4 B2c4Bc Bcde d2c2  | 
w:  2. HANE  |   | 
B4 A2B4A2 B2cd c2B2  | A4 G2AB AGA2 B2G4z2  | \
w:   |   | 
DEFG ABG3cB2 c2d4z2  | 
w:  TESLİM  | 
efef g2a2 gfag =fede d2c2  | BcBc de=fg fede dcBA Bcd2  | 
w:   |   | 
B4 G2AB AGA2 B2G4z2  | G4 A2Bc B2cd c2d4e2  | \
w:   |  3. HANE  | 
f4 g2f2 e2f2 g2a4z2  | 
w:   | 
a2b2 c'2d'2 c'2b2 e'2d'4c'2  | b4 g2ab aga2 b2gf edcB  | 
w:   |   | 
G4 A2Bc B2cd c2d4e2  | f4 g2f2 e2f2 g2a4z2  | \
w:   |   | 
a2b2 c'2d'2 c'2b2 e'2d'4c'2  | 
w:   | 
b4 g2ab aga2 b2g4z2  | g4 f2g4f2 g2ab a2g2  | \
w:   |   | 
f4 e2f4e2 f2ga g2f2  | 
w:   | 
e4 d2e4d2 e2=fg f2e2  | d4 ^c2B4gf efg4z2  | \
w:   |   | 
g4 f2g4f2 g2ab a2g2  | 
w:   | 
f4 e2f4e2 f2ga g2f2  | e4 d2e4d2 e2=fg f2e2  | \
w:   |   | 
d4 ^c2B4dc Bcd4z2  | 
w:   | 
DEFG ABG3cB2 c2d4z2  | efef g2a2 gfag =fede d2c2  | 
w:  TESLİM  |   | 
BcBc de=fg fede dcBA Bcd2  | B4 G2AB AGA2 B2G4z2  | 
w:   |   | 
z24  | G2A2G2F2G2A2B2c2d8  | e2f2g2a2f2g2e2=f2d2e2d2c2  | 
w:  |  4. HANE  |   | 
B2c2d2e2=f2e2d2c2B4d4  | A2B2A2G2A2G2A2B2G8  | \
w:   |   | 
G2A2G2F2G2A2B2c2d8  | 
w:   | 
e2f2g2a2f2g2e2=f2d2e2d2c2  | B2c2d2e2=f2e2d2c2B4d4  | 
w:   |   | 
A2B2A2G2A2G2A2B2G8  | d4c4d4c2d2e2=fgfed2  | \
w:   |   | 
c4B4c4B2c2d2e=fedc2  | 
w:   | 
B4A4B4A2B2c2dedcB2  | A2B2A2G2=f2e2d2e2d8  | \
w:   |   | 
d4c4d4c2d2e2=fgfed2  | 
w:   | 
c4B4c4B2c2d2e=fedc2  | B4A4B4A2B2c2dedcB2  | 
w:   |   | 
A2B2A2G2A2G2A2B2G8  | z20  | DEFG ABG3cB2 c2d4z2  | 
w:   |  |  TESLİM  | 
efef g2a2 gfag =fede d2c2  | BcBc de=fg fede dcBA Bcd2  | 
w:   |   | 
B4 G2AB AGA2 B2G4z2  | DEFG ABG3cB2 c2d4z2  | 
w:   |  TESLİM  | 
efef g2a2 gfag =fede d2c2  | BcBc de=fg fede dcBA Bcd2  | 
w:   |   | 
B4 G2AB AGA2 B2G4z2  | |


